justvector/threewords.me.svg

<?xml version="1.0" encoding="iso-8859-1"?>
<!-- Generator: Adobe Illustrator 15.0.0, SVG Export Plug-In . SVG Version: 6.00 Build 0)  -->
<!DOCTYPE svg PUBLIC "-//W3C//DTD SVG 1.1//EN" "http://www.w3.org/Graphics/SVG/1.1/DTD/svg11.dtd">
<svg version="1.1" id="Layer_1" xmlns="http://www.w3.org/2000/svg" xmlns:xlink="http://www.w3.org/1999/xlink" x="0px" y="0px"
	 width="100px" height="100px" viewBox="0 0 100 100" style="enable-background:new 0 0 100 100;" xml:space="preserve">
<path id="threewords.me" d="M54.129,41.225l23.82-27.576V5H23.047v21.559h11.082V15.279h25.096c1.783,0,4.586-0.377,4.586-0.377
	v0.249c0,0-2.037,1.507-3.439,3.263l-21.91,25.944l2.928,6.517c0.639-0.122,2.932-0.248,5.352-0.248
	c10.955,0,19.873,5.892,19.873,16.421c0,9.776-8.408,16.796-18.473,16.796c-12.865,0-21.91-9.779-21.91-9.779l-6.623,8.9
	c0,0,10.701,12.035,29.17,12.035c18.729,0,30.83-13.287,30.83-28.453C79.607,49.496,65.338,42.354,54.129,41.225z"/>
</svg>

<?xml version="1.0" encoding="UTF-8" standalone="no"?>
<!DOCTYPE svg PUBLIC "-//W3C//DTD SVG 1.1//EN" "http://www.w3.org/Graphics/SVG/1.1/DTD/svg11.dtd">
<svg width="100%" height="100%" viewBox="0 0 100 100" version="1.1" xmlns="http://www.w3.org/2000/svg" xmlns:xlink="http://www.w3.org/1999/xlink" xml:space="preserve" xmlns:serif="http://www.serif.com/" style="fill-rule:evenodd;clip-rule:evenodd;stroke-linejoin:round;stroke-miterlimit:2;">
    <path id="threewords.me" d="M54.129,41.225L67.949,13.649L67.949,12L23.047,12L23.047,0.559L34.129,0.559L34.129,15.279L59.225,15.279C61.008,15.279 63.811,14.902 63.811,14.902L63.811,15.151C63.811,15.151 61.774,16.658 60.372,18.414L38.462,44.358L41.39,50.875C42.029,50.753 44.322,50.627 46.742,50.627C57.697,50.627 66.615,56.519 66.615,67.048C66.615,76.824 58.207,83.844 48.142,83.844C35.277,83.844 26.232,74.065 26.232,74.065L19.609,82.965C19.609,82.965 30.31,95 48.779,95C67.508,95 79.609,81.713 79.609,66.547C79.607,49.496 65.338,42.354 54.129,41.225Z" style="fill-rule:nonzero;"/>
</svg>
